svgs/sharp-solid/mobile-notch.svg

<svg xmlns="http://www.w3.org/2000/svg" viewBox="0 0 384 512"><!--! Font Awesome Pro 6.6.0 by @fontawesome - https://fontawesome.com License - https://fontawesome.com/license (Commercial License) Copyright 2024 Fonticons, Inc. --><path d="M128 64l0 32 128 0 0-32 48 0 0 384L80 448 80 64l48 0zM80 0L16 0l0 64 0 384 0 64 64 0 224 0 64 0 0-64 0-384 0-64L304 0 80 0zm48 384l0 32 16 0 96 0 16 0 0-32-16 0-96 0-16 0z"/></svg>

<svg xmlns="http://www.w3.org/2000/svg" viewBox="0 0 384 512"><!--! Font Awesome Pro 6.4.2 by @fontawesome - https://fontawesome.com License - https://fontawesome.com/license (Commercial License) Copyright 2023 Fonticons, Inc. --><path d="M128 64V96H256V64h48V448H80V64h48zM80 0H16V64 448v64H80 304h64V448 64 0H304 80zm48 384v32h16 96 16V384H240 144 128z"/></svg>
